currency-kzt.svg

<svg fill="currentColor" viewBox="0 0 24 24"><path d="M5 3h14v2H5zm0 3h14v2h-6v13h-2V8H5z"/></svg>

<svg  viewBox="0 0 24 24" fill="currentColor"><path  d="M5,3H19V5H5V3M5,6H19V8H13V21H11V8H5V6Z"/></svg>
